package/converter/svg/solid/square-parking.svg

<svg xmlns="http://www.w3.org/2000/svg" viewBox="0 0 448 512"><!-- Font Awesome Pro 6.0.0-alpha2 by @fontawesome - https://fontawesome.com License - https://fontawesome.com/license (Commercial License) --><path d="M240 192H192V256H240C257.656 256 272 241.656 272 224S257.656 192 240 192ZM384 32H64C28.654 32 0 60.654 0 96V416C0 451.346 28.654 480 64 480H384C419.348 480 448 451.346 448 416V96C448 60.654 419.348 32 384 32ZM240 320H192V352C192 369.688 177.688 384 160 384S128 369.688 128 352V160C128 142.312 142.312 128 160 128H240C292.938 128 336 171.062 336 224S292.938 320 240 320Z"/></svg>

<svg xmlns="http://www.w3.org/2000/svg" viewBox="0 0 448 512"><!--! Font Awesome Pro 6.6.0 by @fontawesome - https://fontawesome.com License - https://fontawesome.com/license (Commercial License) Copyright 2024 Fonticons, Inc. --><path d="M64 32C28.7 32 0 60.7 0 96L0 416c0 35.3 28.7 64 64 64l320 0c35.3 0 64-28.7 64-64l0-320c0-35.3-28.7-64-64-64L64 32zM192 256l48 0c17.7 0 32-14.3 32-32s-14.3-32-32-32l-48 0 0 64zm48 64l-48 0 0 32c0 17.7-14.3 32-32 32s-32-14.3-32-32l0-64 0-120c0-22.1 17.9-40 40-40l72 0c53 0 96 43 96 96s-43 96-96 96z"/></svg>
